svg/set/M10/WM.svg

<?xml version="1.0" encoding="UTF-8" standalone="no"?>
<svg
   version="1.1"
   width="600"
   height="320.58008"
   id="svg1"
   xmlns="http://www.w3.org/2000/svg"
   xmlns:svg="http://www.w3.org/2000/svg">
  <defs
     id="defs1" />
  <path
     d="M 38.712891,0 C 29.808891,21.372 20.195094,42.563927 13.871094,64.919922 9.9830938,79.031922 5.2929688,93.048057 3.7929688,107.66406 2.7609687,116.85606 1.452,126.00053 0,135.14453 v 57.13086 c 1.872,7.644 3.0957812,15.46869 4.1757812,23.30469 1.776,13.5 6.1799218,26.38761 9.4199218,39.59961 7.308,22.27199 15.180453,44.53238 26.064453,65.40039 H 560.43555 c 8.16,-16.416 15.04853,-33.41979 21.14453,-50.67578 3.84,-13.452 9.04814,-26.58 11.24414,-40.5 3.612,-14.808 4.69178,-30.09653 7.17578,-45.14453 v -54.64844 c -2.772,-12.384 -3.93525,-25.03118 -7.03125,-37.367189 C 587.38875,60.000141 573.51592,30.144 561.41992,0 Z m 21.822265,18.861328 c 3.2115,0.01788 6.424625,0.09822 9.640625,0.07422 157.679999,-0.048 315.324739,0.0011 473.052739,-0.04687 1.644,0.048 3.28875,0.18899 4.96875,0.27539 4.464,10.740001 9.43035,21.287865 13.31835,32.25586 3.516,12.048 8.67654,23.676531 10.64454,36.144531 2.952,10.404 4.25939,21.132521 6.27539,31.728521 1.77648,12.984 1.45297,26.1594 2.29297,39.19141 -0.936,16.824 -0.13244,33.83954 -3.64844,50.43554 -4.596,32.208 -16.45253,62.72378 -28.64453,92.67578 -165.612,0.0864 -331.25993,0.0864 -496.919925,0 -2.904,-7.32 -5.82,-14.67527 -9,-21.94726 -4.872,-14.76 -11.435844,-29.05238 -14.339844,-44.48438 -2.496,-11.1 -5.303859,-22.16362 -6.755859,-33.51562 -1.74,-16.728 -1.738578,-33.59955 -1.642578,-50.43555 0.192,-16.584 1.032,-33.32481 4.5,-49.63281 3.048,-16.788011 8.818812,-32.951787 13.882812,-49.175787 3.468,-11.387995 9.648141,-21.708234 12.744141,-33.240235 3.21,-0.275999 6.419359,-0.320614 9.630859,-0.302734 z m 8.322266,19.058594 c -1.68,0.048 -3.372453,0.275922 -5.064453,0.419922 -6.648,16.355995 -12.419547,33.095625 -17.435547,50.015625 -3.228,16.788001 -6.889281,33.612611 -8.113281,50.724611 -0.42048,14.952 -0.516777,29.85576 0.0957,44.75976 1.176,10.82399 2.484531,21.75525 4.644531,32.53125 1.776,6.83999 2.339844,14.1129 5.339844,20.62891 8.904,-8.532 14.255328,-19.96748 18.611328,-31.27148 8.292,-19.164 13.261719,-39.60113 22.261719,-58.45313 1.368,-2.856 4.078875,-5.66366 7.546875,-5.24414 5.352002,0.612 10.319702,2.95214 15.095702,5.24414 2.628,1.404 6.00024,3.14558 6.24024,6.51758 1.116,6.804 -3.93541,12.28794 -6.19141,18.33594 -3.192,8.292 -7.82467,15.98331 -9.88867,24.69531 -2.340003,8.724 -5.951253,17.72317 -4.031253,26.95117 1.224,6.24 7.919333,8.3532 12.611333,11.5332 0.41952,4.83601 0.37218,9.70725 0.0957,14.53125 -10.176,-1.776 -20.530736,-1.82325 -30.802736,-1.03125 -8.808,1.22399 -17.951688,2.81889 -25.679688,7.54688 2.616,8.77201 6.034188,17.34052 9.742188,25.64453 4.74,1.35551 9.793734,0.46796 14.677734,0.64844 151.260002,0 302.483312,-0.0384 453.695312,0 1.692,-0.132 4.12848,0.0484 4.5,-2.09961 5.628,-14.352 11.628,-28.64536 15,-43.69336 1.872,-7.17599 3.98325,-14.2428 5.53125,-21.4668 1.452,-6.744 1.69261,-13.74119 2.72461,-20.5332 0.936,-6.83999 2.01593,-13.69095 1.91993,-20.62695 -0.048,-16.548 0.83954,-33.22882 -2.06446,-49.63282 -1.08,-11.916 -3.9837,-23.53185 -6.0957,-35.255856 -3.42,-12.276 -7.82459,-24.178563 -11.8086,-36.226563 -1.824,-5.16 -3.46679,-10.464828 -6.46679,-15.048828 -155.58,-0.24 -311.15941,-5.31e-4 -466.691411,-0.144531 z M 235.54883,54.935547 c 5.904,0.41952 11.43584,2.761344 17.33984,3.277344 8.436,0.80448 16.91947,0.804417 25.35547,0.335937 4.884,-0.24 9.38528,-2.436531 14.11328,-3.144531 4.224,1.968 7.91947,4.871765 11.85547,7.259765 -0.51648,6.24 -3.17984,12.144469 -2.33984,18.480469 1.08,9.42 3.09465,18.839917 7.22265,27.419919 6.372,12.744 14.06543,24.93532 19.35742,38.19532 6.984,16.92 15.22696,33.38514 20.62696,50.86914 2.616,8.244 3.09726,17.90368 9.69726,24.17968 6.144,5.352 13.12793,9.5625 19.91993,14.0625 2.82,1.968 5.86801,4.08142 7.41601,7.35743 -0.432,4.644 -2.86958,8.72303 -5.01758,12.70703 -10.692,-1.176 -20.8197,-5.4357 -31.5957,-6.09571 -16.692,-2.244 -33.98303,-2.38793 -50.20703,2.58008 -5.904,1.824 -10.87319,5.53208 -16.11719,8.58008 -4.368,-4.404 -8.81881,-8.85592 -12.38281,-13.91992 8.16,-8.016 19.40317,-13.74069 23.95117,-24.80469 3.384,-9.46801 -1.92014,-18.88762 -5.24414,-27.51562 -6.468,-17.90401 -16.40287,-34.21246 -24.04688,-51.56446 -1.5,-2.712 -2.67578,-6.13087 -5.67578,-7.54687 -4.08,0.56352 -7.96964,4.27125 -12.18164,2.53125 -4.368,-2.808 -7.59593,-7.0188 -10.83593,-10.9668 -2.664,-3.048 -3.98332,-7.58467 -2.19532,-11.38867 2.484,-3.792 6.2766,-6.6123 8.8086,-10.4043 3.24,-4.74 6.37125,-9.564295 8.53125,-14.904295 1.128,-2.388 -0.37168,-4.871094 -2.16016,-6.371094 -7.116,-5.82 -16.06723,-8.77164 -23.61523,-13.93164 3,-5.196 6.32392,-10.165344 9.41992,-15.277344 z m 166.72851,1.921875 c -0.56352,16.92 0.14363,33.886635 -0.98437,50.806638 -0.13248,16.5 0.1443,33.0477 -0.0957,49.59571 0.288,2.90399 -2.19749,4.74076 -4.02149,6.46875 -6.708,5.82001 -13.17556,11.91502 -18.85156,18.70703 -1.356,1.77599 -3.17931,3.04838 -5.19531,3.98437 1.5,-30.56399 1.58376,-61.17623 -0.24024,-91.740232 -0.048,-1.632001 -1.176,-3.371391 -3,-3.275391 C 362.62867,90.792777 355.308,91.825866 348,91.128906 347.712,87.744906 347.7123,84.372 347.9043,81 c 6.192,-4.5 13.64325,-6.612687 20.53125,-9.804688 v 0.002 c 11.34,-4.68 22.22579,-10.451844 33.84179,-14.339844 z m 80.39063,1.441406 c 4.22301,-0.171234 8.22833,2.794359 11.76758,4.88086 15.468,10.367999 32.01765,20.209281 43.59765,35.113281 2.95152,12.564001 1.12698,25.642721 0.5625,38.386721 0.132,5.916 -4.96718,9.61262 -8.86718,13.22461 -7.5,6.14401 -14.01607,13.50014 -22.16407,18.74414 -5.484,3.516 -11.064,6.90002 -16.5,10.41601 -3.708,2.196 -7.596,4.63246 -12,5.06446 -7.272,-2.016 -13.92031,-5.67744 -20.82031,-8.77344 -12.324,-6.27599 -22.63192,-15.7911 -31.91992,-25.87109 -2.244,-2.58002 -4.59329,-5.48483 -4.67969,-9.04883 -0.432,-6.66 0.13166,-13.2711 0.74414,-19.8711 0.61152,-7.128 0.3233,-14.35274 1.17578,-21.468747 0.096,-4.032 3.83902,-6.43125 6.79102,-8.53125 11.724,-7.224 22.87283,-15.240828 34.54883,-22.548828 4.872,-3.096 9.46859,-6.706875 14.80859,-9.046875 0.9945,-0.423 1.98054,-0.630406 2.95508,-0.669922 z m -378.2832,1.5625 c 6.3135,0.05807 12.61245,1.146219 18.93945,1.074219 13.644,0.37152 27.28905,-0.04733 40.87305,0.888672 1.128,9.288 6.04748,17.484984 11.77148,24.708984 10.224,13.776007 16.96739,29.950497 28.77539,42.562497 1.644,1.452 3.33578,3.37357 5.67578,3.51758 3.792,-1.32 6.93675,-4.17594 10.96875,-4.83594 4.788,0.336 7.69224,4.6911 10.74024,7.78711 3.048,3.744 7.67886,7.77524 6.13086,13.11524 -1.872,5.352 -7.06822,9.04914 -7.82422,14.86914 -1.128,9.32399 -0.41787,18.98301 3.09765,27.79101 5.904,15.24 12.04785,30.66076 14.33985,46.96875 -5.016,2.72401 -10.54905,4.356 -15.37305,7.5 -10.92,7.08 -19.45223,17.25571 -25.74023,28.59571 -5.664,-2.484 -11.34007,-5.112 -16.16407,-9 -0.936,-2.064 -0.28711,-4.50099 -0.28711,-6.70899 1.32,-14.436 -1.68029,-28.87161 -5.90429,-42.59961 -4.176,-13.224 -7.87141,-26.67592 -13.69141,-39.33593 -7.452,-17.48399 -15.51667,-35.14823 -27.88867,-49.82422 -2.484,-2.16 -5.58052,-7.12749 -9.22852,-4.27149 -4.596,4.224 -4.69215,11.72416 -9.66015,15.66016 -6.324,1.788 -11.95072,-2.48445 -17.38672,-5.06445 -3.756,-2.01601 -9.240455,-4.63185 -8.064455,-9.83985 2.628005,-10.452 8.245045,-19.91991 10.873045,-30.41992 0.24,-3.288 1.7382,-8.532375 -2.3418,-9.984375 -5.57999,-2.772 -11.999245,-2.85525 -17.531245,-5.53125 -2.292,-1.176 -2.53125,-4.128828 -1.03125,-6.048828 2.76,-4.032 5.627328,-8.291031 9.611328,-11.207031 2.108997,-0.291 4.215817,-0.386545 6.320317,-0.367188 z m 357.24804,25.248047 c -1.7745,0.024 -3.49665,0.318172 -4.97265,1.326172 -8.964,9.468 -11.86891,23.857043 -8.62891,36.373043 2.76,9.336 9.00045,17.48393 17.06445,22.91993 9.468,6.564 20.43561,11.67648 32.09961,12 3.804,-0.132 8.62966,-0.60113 10.59766,-4.45313 8.16,-13.548 8.86741,-32.53056 -1.30859,-45.22656 -9.56401,-12.336007 -24.28846,-20.256533 -39.56446,-22.644533 -1.686,-0.072 -3.51261,-0.318922 -5.28711,-0.294922 z"
     id="path1" />
</svg>

<?xml version="1.0" encoding="UTF-8" standalone="no"?>
<svg xmlns="http://www.w3.org/2000/svg" version="1.1" width="600" height="320.57999">
  <path d="M 38.712891 0 C 29.808891 21.372 20.195094 42.563927 13.871094 64.919922 C 9.9830938 79.031922 5.2929688 93.048057 3.7929688 107.66406 C 2.7609687 116.85606 1.452 126.00053 0 135.14453 L 0 192.27539 C 1.872 199.91939 3.0957812 207.74408 4.1757812 215.58008 C 5.9517812 229.08008 10.355703 241.96769 13.595703 255.17969 C 20.903703 277.45168 28.776156 299.71207 39.660156 320.58008 L 560.43555 320.58008 C 568.59555 304.16408 575.48408 287.16029 581.58008 269.9043 C 585.42008 256.4523 590.62822 243.3243 592.82422 229.4043 C 596.43622 214.5963 597.516 199.30777 600 184.25977 L 600 129.61133 C 597.228 117.22733 596.06475 104.58015 592.96875 92.244141 C 587.38875 60.000141 573.51592 30.144 561.41992 0 L 38.712891 0 z M 60.535156 18.861328 C 63.746656 18.879208 66.959781 18.959547 70.175781 18.935547 C 227.85578 18.887547 385.50052 18.936672 543.22852 18.888672 C 544.87252 18.936672 546.51727 19.077662 548.19727 19.164062 C 552.66127 29.904063 557.62762 40.451927 561.51562 51.419922 C 565.03162 63.467922 570.19216 75.096453 572.16016 87.564453 C 575.11216 97.968453 576.41955 108.69697 578.43555 119.29297 C 580.21203 132.27697 579.88852 145.45237 580.72852 158.48438 C 579.79252 175.30838 580.59608 192.32392 577.08008 208.91992 C 572.48408 241.12792 560.62755 271.6437 548.43555 301.5957 C 382.82355 301.6821 217.17562 301.6821 51.515625 301.5957 C 48.611625 294.2757 45.695625 286.92043 42.515625 279.64844 C 37.643625 264.88844 31.079781 250.59606 28.175781 235.16406 C 25.679781 224.06406 22.871922 213.00044 21.419922 201.64844 C 19.679922 184.92044 19.681344 168.04889 19.777344 151.21289 C 19.969344 134.62889 20.809344 117.88808 24.277344 101.58008 C 27.325344 84.792073 33.096156 68.628297 38.160156 52.404297 C 41.628156 41.016302 47.808297 30.696063 50.904297 19.164062 C 54.114297 18.888063 57.323656 18.843448 60.535156 18.861328 z M 68.857422 37.919922 C 67.177422 37.967922 65.484969 38.195844 63.792969 38.339844 C 57.144969 54.695839 51.373422 71.435469 46.357422 88.355469 C 43.129422 105.14347 39.468141 121.96808 38.244141 139.08008 C 37.823661 154.03208 37.727364 168.93584 38.339844 183.83984 C 39.515844 194.66383 40.824375 205.59509 42.984375 216.37109 C 44.760375 223.21108 45.324219 230.48399 48.324219 237 C 57.228219 228.468 62.579547 217.03252 66.935547 205.72852 C 75.227547 186.56452 80.197266 166.12739 89.197266 147.27539 C 90.565266 144.41939 93.276141 141.61173 96.744141 142.03125 C 102.09614 142.64325 107.06384 144.98339 111.83984 147.27539 C 114.46784 148.67939 117.84008 150.42097 118.08008 153.79297 C 119.19608 160.59697 114.14467 166.08091 111.88867 172.12891 C 108.69667 180.42091 104.064 188.11222 102 196.82422 C 99.66 205.54822 96.04875 214.54739 97.96875 223.77539 C 99.19275 230.01539 105.88808 232.12859 110.58008 235.30859 C 110.9996 240.1446 110.95226 245.01584 110.67578 249.83984 C 100.49978 248.06384 90.145047 248.01659 79.873047 248.80859 C 71.065047 250.03258 61.921359 251.62748 54.193359 256.35547 C 56.809359 265.12748 60.227547 273.69599 63.935547 282 C 68.675547 283.35551 73.729281 282.46796 78.613281 282.64844 C 229.87328 282.64844 381.09659 282.61004 532.30859 282.64844 C 534.00059 282.51644 536.43707 282.69683 536.80859 280.54883 C 542.43659 266.19683 548.43659 251.90347 551.80859 236.85547 C 553.68059 229.67948 555.79184 222.61267 557.33984 215.38867 C 558.79184 208.64467 559.03245 201.64748 560.06445 194.85547 C 561.00045 188.01548 562.08038 181.16452 561.98438 174.22852 C 561.93638 157.68052 562.82392 140.9997 559.91992 124.5957 C 558.83992 112.6797 555.93622 101.06385 553.82422 89.339844 C 550.40422 77.063844 545.99963 65.161281 542.01562 53.113281 C 540.19162 47.953281 538.54883 42.648453 535.54883 38.064453 C 379.96883 37.824453 224.38942 38.063922 68.857422 37.919922 z M 235.54883 54.935547 C 241.45283 55.355067 246.98467 57.696891 252.88867 58.212891 C 261.32467 59.017371 269.80814 59.017308 278.24414 58.548828 C 283.12814 58.308828 287.62942 56.112297 292.35742 55.404297 C 296.58142 57.372297 300.27689 60.276062 304.21289 62.664062 C 303.69641 68.904062 301.03305 74.808531 301.87305 81.144531 C 302.95305 90.564531 304.9677 99.984448 309.0957 108.56445 C 315.4677 121.30845 323.16113 133.49977 328.45312 146.75977 C 335.43712 163.67977 343.68008 180.14491 349.08008 197.62891 C 351.69608 205.87291 352.17734 215.53259 358.77734 221.80859 C 364.92134 227.16059 371.90527 231.37109 378.69727 235.87109 C 381.51727 237.83909 384.56528 239.95251 386.11328 243.22852 C 385.68128 247.87252 383.2437 251.95155 381.0957 255.93555 C 370.4037 254.75955 360.276 250.49985 349.5 249.83984 C 332.808 247.59584 315.51697 247.45191 299.29297 252.41992 C 293.38897 254.24392 288.41978 257.952 283.17578 261 C 278.80778 256.596 274.35697 252.14408 270.79297 247.08008 C 278.95297 239.06408 290.19614 233.33939 294.74414 222.27539 C 298.12814 212.80738 292.824 203.38777 289.5 194.75977 C 283.032 176.85576 273.09713 160.54731 265.45312 143.19531 C 263.95312 140.48331 262.77734 137.06444 259.77734 135.64844 C 255.69734 136.21196 251.8077 139.91969 247.5957 138.17969 C 243.2277 135.37169 239.99977 131.16089 236.75977 127.21289 C 234.09577 124.16489 232.77645 119.62822 234.56445 115.82422 C 237.04845 112.03222 240.84105 109.21192 243.37305 105.41992 C 246.61305 100.67992 249.7443 95.855625 251.9043 90.515625 C 253.0323 88.127625 251.53262 85.644531 249.74414 84.144531 C 242.62814 78.324531 233.67691 75.372891 226.12891 70.212891 C 229.12891 65.016891 232.45283 60.047547 235.54883 54.935547 z M 402.27734 56.857422 C 401.71382 73.777422 402.42097 90.744057 401.29297 107.66406 C 401.16049 124.16406 401.43727 140.71176 401.19727 157.25977 C 401.48527 160.16376 398.99978 162.00053 397.17578 163.72852 C 390.46778 169.54853 384.00022 175.64354 378.32422 182.43555 C 376.96822 184.21154 375.14491 185.48393 373.12891 186.41992 C 374.62891 155.85593 374.71267 125.24369 372.88867 94.679688 C 372.84067 93.047687 371.71267 91.308297 369.88867 91.404297 C 362.62867 90.792777 355.308 91.825866 348 91.128906 C 347.712 87.744906 347.7123 84.372 347.9043 81 C 354.0963 76.5 361.54755 74.387313 368.43555 71.195312 L 368.43555 71.197266 C 379.77555 66.517266 390.66134 60.745422 402.27734 56.857422 z M 482.66797 58.298828 C 486.89098 58.127594 490.8963 61.093187 494.43555 63.179688 C 509.90355 73.547687 526.4532 83.388969 538.0332 98.292969 C 540.98472 110.85697 539.16018 123.93569 538.5957 136.67969 C 538.7277 142.59569 533.62852 146.29231 529.72852 149.9043 C 522.22852 156.04831 515.71245 163.40444 507.56445 168.64844 C 502.08045 172.16444 496.50045 175.54846 491.06445 179.06445 C 487.35645 181.26045 483.46845 183.69691 479.06445 184.12891 C 471.79245 182.11291 465.14414 178.45147 458.24414 175.35547 C 445.92014 169.07948 435.61222 159.56437 426.32422 149.48438 C 424.08022 146.90436 421.73093 143.99955 421.64453 140.43555 C 421.21253 133.77555 421.77619 127.16445 422.38867 120.56445 C 423.00019 113.43645 422.71197 106.21171 423.56445 99.095703 C 423.66045 95.063703 427.40347 92.664453 430.35547 90.564453 C 442.07947 83.340453 453.2283 75.323625 464.9043 68.015625 C 469.7763 64.919625 474.37289 61.30875 479.71289 58.96875 C 480.70739 58.54575 481.69343 58.338344 482.66797 58.298828 z M 104.38477 59.861328 C 110.69827 59.919401 116.99722 61.007547 123.32422 60.935547 C 136.96822 61.307067 150.61327 60.888219 164.19727 61.824219 C 165.32527 71.112219 170.24475 79.309203 175.96875 86.533203 C 186.19275 100.30921 192.93614 116.4837 204.74414 129.0957 C 206.38814 130.5477 208.07992 132.46927 210.41992 132.61328 C 214.21192 131.29328 217.35667 128.43734 221.38867 127.77734 C 226.17667 128.11334 229.08091 132.46844 232.12891 135.56445 C 235.17691 139.30845 239.80777 143.33969 238.25977 148.67969 C 236.38777 154.03169 231.19155 157.72883 230.43555 163.54883 C 229.30755 172.87282 230.01768 182.53184 233.5332 191.33984 C 239.4372 206.57984 245.58105 222.0006 247.87305 238.30859 C 242.85705 241.0326 237.324 242.66459 232.5 245.80859 C 221.58 252.88859 213.04777 263.0643 206.75977 274.4043 C 201.09577 271.9203 195.4197 269.2923 190.5957 265.4043 C 189.6597 263.3403 190.30859 260.90331 190.30859 258.69531 C 191.62859 244.25931 188.6283 229.8237 184.4043 216.0957 C 180.2283 202.8717 176.53289 189.41978 170.71289 176.75977 C 163.26089 159.27578 155.19622 141.61154 142.82422 126.93555 C 140.34022 124.77555 137.2437 119.80806 133.5957 122.66406 C 128.9997 126.88806 128.90355 134.38822 123.93555 138.32422 C 117.61155 140.11222 111.98483 135.83977 106.54883 133.25977 C 102.79283 131.24376 97.308375 128.62792 98.484375 123.41992 C 101.11238 112.96792 106.72942 103.50001 109.35742 93 C 109.59742 89.712 111.09562 84.467625 107.01562 83.015625 C 101.43563 80.243625 95.016375 80.160375 89.484375 77.484375 C 87.192375 76.308375 86.953125 73.355547 88.453125 71.435547 C 91.213125 67.403547 94.080453 63.144516 98.064453 60.228516 C 100.17345 59.937516 102.28027 59.841971 104.38477 59.861328 z M 461.63281 85.109375 C 459.85831 85.133375 458.13616 85.427547 456.66016 86.435547 C 447.69616 95.903547 444.79125 110.29259 448.03125 122.80859 C 450.79125 132.14459 457.0317 140.29252 465.0957 145.72852 C 474.5637 152.29252 485.53131 157.405 497.19531 157.72852 C 500.99931 157.59652 505.82497 157.12739 507.79297 153.27539 C 515.95297 139.72739 516.66038 120.74483 506.48438 108.04883 C 496.92037 95.712823 482.19592 87.792297 466.91992 85.404297 C 465.23392 85.332297 463.40731 85.085375 461.63281 85.109375 z "/>
</svg>
